X:1
T:Title
%%score { 1 | ( 2 3 ) }
L:1/8
M:6/8
K:Eb
V:1 treble nm="Grand Piano"
V:2 bass 
V:3 bass 
V:1
 z3 z2[Q:1/4=100] [GB] | [GB]2 [GB] [_Gc]2 [=GB] | G2 B, E2 G | G2 G A2 G |[M:5/8] F2 C [DF]2 | %5
[M:1/8] [DB] |[M:3/4] [EB]2 [GB] [_Gc]2 [=GB] | G2 B, E2 G | FB cd Bc |[M:5/8] [DB]-[DB]- [DB]3 | %10
[M:1/8] [EG] |[M:3/4] [DF][DB] [DB] [DB]2 [A,DF] | [G,E][B,GB] [B,GB] [EGB]2 [B,GB] | %13
 [FA][DF] [EG][FA] [Ac][GB] | [EG][Ge] [_Gc] [=GB]2 [EG] | [DF][DB] [DB] [DB]2 [DF] | %16
 EB B B2 [_DB] | [CA][K:bass][E,C] [E,CE][K:treble] [B,DG]2 [A,DF] |[M:5/8] [G,E]-[G,E]- [G,E]3 |] %19
V:2
 z3 z2 [E,B,] | [E,E]2 [E,B,] [E,=A,]2 [E,B,] | [E,B,E]2 [E,G,] [E,G,B,]2 [E,B,E] | %3
 [E,B,E]2 [E,B,E] [E,CE]2 [E,B,E] |[M:5/8] [F,=A,E]2 [F,A,] [B,,B,]2 |[M:1/8] [B,,A,] | %6
[M:3/4] [E,G,]2 [E,B,] [E,=A,]2 [E,B,] | [E,B,E]2 [E,G,] [E,G,B,]2 [E,B,E] | %8
 [F,B,D]2 [F,B,E][B,F] [G,D][F,=A,E] |[M:5/8] [B,,B,]-[B,,B,]- [B,,B,]3 |[M:1/8] [E,B,] | %11
[M:3/4] [B,,B,][B,,F,] [B,,F,] [B,,A,]2 B,, | E,E, E, E,2 E, | %13
 [B,,B,][B,,B,] [B,,B,][B,,B,] [B,,B,][B,,B,] | [E,B,][E,B,] [E,=A,] [E,B,]2 [E,B,] | %15
 [B,,B,][B,,F,] [B,,F,] [B,,A,]2 [B,,A,] | [E,G,][E,G,E] [E,G,E] [E,G,E]2 [G,,E,] | %17
 [A,,E,]A,, A,, B,,2 B,, |[M:5/8] E,-E,- E,3 |] %19
V:3
 x6 | x6 | x6 | x6 |[M:5/8] x5 |[M:1/8] x |[M:3/4] x6 | x6 | z2 z .F,3 |[M:5/8] x5 |[M:1/8] x | %11
[M:3/4] x6 | x6 | x6 | x6 | x6 | x6 | x6 |[M:5/8] x5 |] %19

